my_site/img/clients/fa-brands_hooli.svg

<svg width="103" height="35" viewBox="0 0 103 35" fill="none" xmlns="http://www.w3.org/2000/svg">
<g clip-path="url(#clip0)">
<path d="M23.2553 32.4249L29.4193 32.5526C27.2949 31.8183 25.2349 30.9244 23.2553 29.8709V32.4249ZM32.5414 31.5789V32.4249L29.4193 32.5526C35.2935 34.5479 40.6688 34.8193 44.66 33.7019C41.4574 33.7338 37.2891 33.2869 32.5414 31.5789ZM98.3488 13.1901C100.908 13.1901 103 11.131 103 8.577C103 6.02301 100.924 4.6662 98.3488 4.6662C95.7899 4.6662 93.6977 6.03897 93.6977 8.577C93.6977 11.115 95.7738 13.1901 98.3488 13.1901ZM93.6816 32.4249H103V14.7864H93.6816V32.4249ZM81.8205 32.4249H91.1388V1.25024L81.8205 5.60799V32.4249ZM76.8314 13.3657C73.9024 10.4606 68.7202 10.6362 68.7202 10.6362C68.7202 10.6362 63.5219 10.4606 60.6089 13.3657C57.6799 16.2709 57.9052 18.777 57.9052 21.762C57.9052 24.747 57.6799 27.2371 60.6089 30.1423C63.538 33.0474 68.7202 32.8718 68.7202 32.8718C68.7202 32.8718 73.9185 33.0474 76.8314 30.1423C79.7605 27.2371 79.5352 24.747 79.5352 21.762C79.5191 18.761 79.7444 16.2549 76.8314 13.3657ZM70.4261 24.8427C70.4261 25.4174 70.1364 26.838 68.7041 26.838C67.2718 26.838 66.9821 25.4174 66.9821 24.8427V18.3939C66.9821 17.0052 68.1569 16.654 68.7041 16.654C69.2513 16.654 70.4261 16.9892 70.4261 18.3939V24.8427ZM53.3346 13.3657C50.4055 10.4606 45.2233 10.6362 45.2233 10.6362C45.2233 10.6362 40.0411 10.4606 37.1121 13.3657C36.8063 13.669 36.5166 13.9883 36.2591 14.3235C30.1113 9.5986 24.5911 6.90094 19.8274 4.57043V1.2662L16.2063 2.95822C7.45129 -0.569481 1.88285 0.0530559 0.547068 2.97418C0.547068 2.97418 -3.46028 8.20986 10.493 20.6606V32.4249H19.8113V27.8596C18.7652 27.1892 17.7191 26.4709 16.6891 25.6887C14.3072 23.9009 12.2794 22.2409 10.5091 20.6765V15.7282C12.6174 18.0747 15.4177 20.7404 19.1032 23.7573L19.8274 24.3319V19.5751C19.8274 18.4737 20.101 16.67 21.5655 16.67C23.03 16.67 23.2714 17.7714 23.2714 19.0643V26.838C26.1683 28.7855 29.2744 30.3657 32.5575 31.5629V16.5742C32.5575 13.5892 30.401 10.6042 26.0235 10.6042C23.4807 10.5883 21.1149 11.9132 19.8274 14.1V5.4324C26.5707 8.76855 33.33 12.8549 35.905 14.7385C34.2635 17.069 34.4083 19.2239 34.4083 21.7141C34.4083 24.6991 34.183 27.1892 37.1121 30.0944C40.0411 32.9995 45.2233 32.824 45.2233 32.824C45.2233 32.824 50.4216 32.9995 53.3346 30.0944C56.2636 27.1892 56.0222 24.6991 56.0222 21.7141C56.0222 18.761 56.2636 16.2549 53.3346 13.3657ZM10.493 5.60799V15.7122C2.65535 7.01268 4.23254 3.58076 4.82801 3.08592C7.00066 1.2662 10.8632 1.80892 15.1924 3.42113L10.493 5.60799ZM46.9453 24.8427C46.9453 25.4174 46.6557 26.838 45.2233 26.838C43.791 26.838 43.5013 25.4174 43.5013 24.8427V18.3939C43.5013 17.0052 44.6761 16.654 45.2233 16.654C45.7705 16.654 46.9453 16.9892 46.9453 18.3939V24.8427Z" fill="#737373"/>
</g>
<defs>
<clipPath id="clip0">
<rect width="103" height="34" fill="white" transform="translate(0 0.5)"/>
</clipPath>
</defs>
</svg>

<svg width="103" height="35" fill="none" xmlns="http://www.w3.org/2000/svg"><g clip-path="url(#clip0)"><path d="M23.255 32.425l6.164.128a43.043 43.043 0 01-6.164-2.682v2.554zm9.286-.846v.846l-3.122.128c5.875 1.995 11.25 2.266 15.241 1.149-3.203.032-7.37-.415-12.119-2.123zM98.35 13.19c2.559 0 4.651-2.059 4.651-4.613 0-2.554-2.076-3.91-4.651-3.91-2.56 0-4.651 1.372-4.651 3.91 0 2.538 2.076 4.613 4.65 4.613zm-4.667 19.235H103V14.786h-9.318v17.639zm-11.862 0h9.319V1.25l-9.32 4.358v26.817zm-4.989-19.06c-2.929-2.904-8.11-2.729-8.11-2.729s-5.2-.175-8.112 2.73c-2.93 2.905-2.704 5.411-2.704 8.396 0 2.985-.225 5.475 2.704 8.38 2.929 2.905 8.111 2.73 8.111 2.73s5.198.175 8.111-2.73c2.93-2.905 2.704-5.395 2.704-8.38-.016-3.001.21-5.507-2.704-8.396zm-6.405 11.478c0 .574-.29 1.995-1.722 1.995s-1.722-1.42-1.722-1.995v-6.45c0-1.388 1.175-1.739 1.722-1.739.547 0 1.722.335 1.722 1.74v6.449zM53.335 13.366c-2.93-2.905-8.112-2.73-8.112-2.73s-5.182-.175-8.11 2.73a9.582 9.582 0 00-.854.957C30.111 9.6 24.591 6.901 19.827 4.57V1.266l-3.62 1.692C7.45-.569 1.882.053.546 2.974c0 0-4.007 5.236 9.946 17.687v11.764h9.318V27.86a47.748 47.748 0 01-3.122-2.171 99.376 99.376 0 01-6.18-5.012v-4.949c2.108 2.347 4.909 5.012 8.594 8.03l.724.574v-4.757c0-1.101.274-2.905 1.738-2.905 1.465 0 1.706 1.101 1.706 2.394v7.774a43.04 43.04 0 009.286 4.725V16.574c0-2.985-2.156-5.97-6.534-5.97a7.13 7.13 0 00-6.196 3.496V5.432c6.744 3.337 13.503 7.423 16.078 9.306-1.642 2.331-1.497 4.486-1.497 6.976 0 2.985-.225 5.475 2.704 8.38 2.93 2.905 8.111 2.73 8.111 2.73s5.199.175 8.112-2.73c2.929-2.905 2.687-5.395 2.687-8.38 0-2.953.242-5.46-2.687-8.348zM10.493 5.608v10.104c-7.838-8.7-6.26-12.131-5.665-12.626 2.173-1.82 6.035-1.277 10.364.335l-4.699 2.187zm36.452 19.235c0 .574-.29 1.995-1.722 1.995s-1.722-1.42-1.722-1.995v-6.45c0-1.388 1.175-1.739 1.722-1.739.547 0 1.722.335 1.722 1.74v6.449z" fill="#737373"/></g><defs><clipPath id="clip0"><path fill="#fff" transform="translate(0 .5)" d="M0 0h103v34H0z"/></clipPath></defs></svg>
